X:1
T:Title
%%score 1 2
L:1/8
Q:1/4=95
M:3/4
K:G
V:1 treble nm="Grand Piano, Staff 1"
V:2 bass nm="Choir Pad, Maryland, LMD"
V:1
 D2 [DG]>[DG] [DG]2 | [FA]2 [GB]>[GB] [GB]2- | [GB][GB] [FA]>[GB] [Ac]2 | [DF]2 [DA]>[DG] [DG]2 | %4
w: By~Alexander~Zarnock * * *||||
 D2 [DG]>[DG] [DG]2 | [FA]2 [GB]>[GB] [GB]2- | [GB][GB] [FA]>[GB] [Ac]2 | [DF]2 [DA]>[DG] [DG]2 | %8
w: ||||
 z [Gd] [Gd]>[GB] [^Ge]2- | [Ge][^Gd] [Bd]>[Ac] [Ac]2- | [Ac][Ac] [Ac]>A [Fd]2- | %11
w: |||
 [Fd][Fc] [Ac]>[GB] [GB]2 | D2 [DG]>[DG] [DG]2 | [FA]2 [GB]>[GB] [GB]2- | %14
w: |||
 [GB][GB] [EA]>[EB] [Ec]2 | [DF]2 [DA]>[DG] [DG]2- | [DG]6 |] %17
w: |||
V:2
 [G,B,]2 [G,B,]>[G,B,] [G,B,]2 | [D,D]2 [G,D]>[G,D] [G,D]2- | [G,D][G,D] [D,D]>[D,D] [D,D]2 | %3
 [D,A,]2 [G,C]>[G,B,] [G,B,]2 | [G,B,]2 [G,B,]>[G,B,] [G,B,]2 | [D,D]2 [G,D]>[G,D] [G,D]2- | %6
 [G,D][G,D] [D,D]>[D,D] [D,D]2 | [D,A,]2 [G,C]>[G,B,] [G,B,]2 | z [G,B,] [G,B,]>[G,B,] [E,B,]2- | %9
 [E,B,][E,E] [A,E]>[A,E] [A,E]2- | [A,E][G,E] [F,D]>[F,D] [D,D]2- | [D,D][D,D] [G,D]>[G,D] [G,D]2 | %12
 [G,B,]2 [G,B,]>[G,B,] [G,B,]2 | [D,D]2 [G,D]>[G,D] [G,D]2- | [G,D][G,D] [C,A,]>[B,,^G,] [A,,A,]2 | %15
 [D,A,]2 [G,C]>[G,B,] [G,B,]2- | [G,B,]6 |] %17

